X:0360
M:6/8
L:1/8
Q:3/8=112
K:A Dorian
cdc efe|d2d (ded)|(cdc) (edc)|B2g dBG|cdc edc|deg a2g|e3 deg|edB A3:|

